; generated by Slic3r 1.0.0RC1 on 2014-02-23 at 19:18:52

; layer_height = 0.254
; perimeters = 1
; top_solid_layers = 3
; bottom_solid_layers = 3
; fill_density = 0.3
; perimeter_speed = 70
; infill_speed = 70
; travel_speed = 130
; nozzle_diameter = 0.6
; filament_diameter = 2.86
; extrusion_multiplier = 1
; perimeters extrusion width = 0.60mm
; infill extrusion width = 1.17mm
; solid infill extrusion width = 1.02mm
; top infill extrusion width = 1.02mm

G21 ; set units to millimeters
M106 S0 ; disable fan
M140 S60 ; set bed temperature
M116 ; wait for bed temperature to be reached
M104 S210 ; set temperature
G28 ; home all axes
G1 Z0.3
G1 F3000 X50 Y5 E5
G1 F3000 X0 Y10 E5
M104 S210 ; set temperature
M116 ; wait for temperature to be reached
G90 ; use absolute coordinates
M83 ; use relative distances for extrusion
G1 F60000.000 E-1.00000 ; retract
G1 Z0.254 F7800.000 ; move to next layer (0)
G1 X51.330 Y73.970 F7800.000 ; move to first skirt point
G1 E1.00000 F60000.000 ; compensate retraction
G1 X52.470 Y73.360 E0.03067 F1260.000 ; skirt
G1 X53.710 Y72.990 E0.03070 ; skirt
G1 X55.000 Y72.860 E0.03076 ; skirt
G1 X125.000 Y72.860 E1.66058 ; skirt
G1 X126.290 Y72.990 E0.03076 ; skirt
G1 X127.530 Y73.360 E0.03070 ; skirt
G1 X128.670 Y73.970 E0.03067 ; skirt
G1 X129.670 Y74.790 E0.03068 ; skirt
G1 X130.490 Y75.790 E0.03068 ; skirt
G1 X131.100 Y76.930 E0.03067 ; skirt
G1 X131.470 Y78.170 E0.03070 ; skirt
G1 X131.600 Y79.460 E0.03076 ; skirt
G1 X131.600 Y83.360 E0.09252 ; skirt
G1 X131.450 Y84.780 E0.03387 ; skirt
G1 X130.990 Y86.130 E0.03383 ; skirt
G1 X130.260 Y87.350 E0.03373 ; skirt
G1 X129.280 Y88.390 E0.03390 ; skirt
G1 X108.040 Y106.450 E0.66139 ; skirt
G1 X107.260 Y107.020 E0.02292 ; skirt
G1 X106.860 Y107.270 E0.01119 ; skirt
G1 X105.860 Y107.780 E0.02663 ; skirt
G1 X105.420 Y107.960 E0.01128 ; skirt
G1 X104.450 Y108.270 E0.02416 ; skirt
G1 X103.990 Y108.380 E0.01122 ; skirt
G1 X103.030 Y108.540 E0.02309 ; skirt
G1 X102.570 Y108.580 E0.01095 ; skirt
G1 X102.000 Y108.600 E0.01353 ; skirt
G1 X78.000 Y108.600 E0.56934 ; skirt
G1 X77.430 Y108.580 E0.01353 ; skirt
G1 X76.970 Y108.540 E0.01095 ; skirt
G1 X76.010 Y108.380 E0.02309 ; skirt
G1 X75.550 Y108.270 E0.01122 ; skirt
G1 X74.580 Y107.960 E0.02416 ; skirt
G1 X74.140 Y107.780 E0.01128 ; skirt
G1 X73.140 Y107.270 E0.02663 ; skirt
G1 X72.740 Y107.020 E0.01119 ; skirt
G1 X71.960 Y106.450 E0.02292 ; skirt
G1 X50.720 Y88.390 E0.66139 ; skirt
G1 X49.740 Y87.350 E0.03390 ; skirt
G1 X49.010 Y86.130 E0.03373 ; skirt
G1 X48.550 Y84.780 E0.03383 ; skirt
G1 X48.400 Y83.360 E0.03387 ; skirt
G1 X48.400 Y79.460 E0.09252 ; skirt
G1 X48.530 Y78.170 E0.03076 ; skirt
G1 X48.900 Y76.930 E0.03070 ; skirt
G1 X49.510 Y75.790 E0.03067 ; skirt
G1 X50.330 Y74.790 E0.03068 ; skirt
G1 X51.260 Y74.027 E0.02854 ; skirt
G1 F60000.000 E-1.00000 ; retract
G1 X71.949 Y86.069 F7800.000 ; move to first brim point
G1 E1.00000 F60000.000 ; compensate retraction
G1 X53.882 Y86.069 E0.42859 F1260.000 ; brim
G1 X52.300 Y84.488 E0.05306 ; brim
G1 X52.300 Y78.346 E0.14569 ; brim
G1 X53.882 Y76.765 E0.05306 ; brim
G1 X126.118 Y76.765 E1.71365 ; brim
G1 X127.700 Y78.346 E0.05306 ; brim
G1 X127.700 Y84.488 E0.14569 ; brim
G1 X126.118 Y86.069 E0.05306 ; brim
G1 X108.051 Y86.069 E0.42859 ; brim
G1 X107.700 Y86.421 E0.01179 ; brim
G1 X107.700 Y99.053 E0.29967 ; brim
G1 X107.646 Y99.787 E0.01746 ; brim
G1 X107.613 Y99.996 E0.00503 ; brim
G1 X107.454 Y100.661 E0.01620 ; brim
G1 X107.388 Y100.862 E0.00503 ; brim
G1 X107.127 Y101.493 E0.01620 ; brim
G1 X107.031 Y101.682 E0.00503 ; brim
G1 X106.674 Y102.265 E0.01620 ; brim
G1 X106.549 Y102.436 E0.00503 ; brim
G1 X106.106 Y102.956 E0.01620 ; brim
G1 X105.955 Y103.106 E0.00503 ; brim
G1 X105.436 Y103.549 E0.01620 ; brim
G1 X105.265 Y103.674 E0.00503 ; brim
G1 X104.682 Y104.031 E0.01620 ; brim
G1 X104.493 Y104.127 E0.00503 ; brim
G1 X103.862 Y104.388 E0.01620 ; brim
G1 X103.661 Y104.454 E0.00503 ; brim
G1 X102.996 Y104.613 E0.01620 ; brim
G1 X102.787 Y104.646 E0.00503 ; brim
G1 X102.053 Y104.700 E0.01746 ; brim
G1 X77.947 Y104.700 E0.57186 ; brim
G1 X77.213 Y104.646 E0.01746 ; brim
G1 X77.004 Y104.613 E0.00503 ; brim
G1 X76.339 Y104.454 E0.01620 ; brim
G1 X76.138 Y104.388 E0.00503 ; brim
G1 X75.507 Y104.127 E0.01620 ; brim
G1 X75.318 Y104.031 E0.00503 ; brim
G1 X74.735 Y103.674 E0.01620 ; brim
G1 X74.564 Y103.549 E0.00503 ; brim
G1 X74.044 Y103.106 E0.01620 ; brim
G1 X73.894 Y102.955 E0.00503 ; brim
G1 X73.451 Y102.436 E0.01620 ; brim
G1 X73.326 Y102.265 E0.00503 ; brim
G1 X72.969 Y101.682 E0.01620 ; brim
G1 X72.873 Y101.493 E0.00503 ; brim
G1 X72.612 Y100.862 E0.01620 ; brim
G1 X72.546 Y100.661 E0.00503 ; brim
G1 X72.387 Y99.996 E0.01620 ; brim
G1 X72.354 Y99.787 E0.00503 ; brim
G1 X72.300 Y99.053 E0.01746 ; brim
G1 X72.300 Y86.421 E0.29967 ; brim
G1 X72.012 Y86.133 E0.00966 ; brim
G1 X72.549 Y85.469 F7800.000 ; move to first brim point
G1 X54.130 Y85.469 E0.43693 F1260.000 ; brim
G1 X52.900 Y84.239 E0.04127 ; brim
G1 X52.900 Y78.595 E0.13390 ; brim
G1 X54.130 Y77.365 E0.04127 ; brim
G1 X125.870 Y77.365 E1.70185 ; brim
G1 X127.100 Y78.595 E0.04127 ; brim
G1 X127.100 Y84.239 E0.13390 ; brim
G1 X125.870 Y85.469 E0.04127 ; brim
G1 X107.451 Y85.469 E0.43693 ; brim
G1 X107.100 Y85.821 E0.01179 ; brim
G1 X107.100 Y99.041 E0.31362 ; brim
G1 X107.050 Y99.716 E0.01606 ; brim
G1 X106.876 Y100.498 E0.01899 ; brim
G1 X106.582 Y101.242 E0.01899 ; brim
G1 X106.174 Y101.931 E0.01899 ; brim
G1 X106.077 Y102.064 E0.00392 ; brim
G1 X105.548 Y102.665 E0.01899 ; brim
G1 X104.931 Y103.174 E0.01899 ; brim
G1 X104.242 Y103.582 E0.01899 ; brim
G1 X103.498 Y103.876 E0.01899 ; brim
G1 X102.716 Y104.050 E0.01899 ; brim
G1 X102.041 Y104.100 E0.01606 ; brim
G1 X77.959 Y104.100 E0.57130 ; brim
G1 X77.284 Y104.050 E0.01606 ; brim
G1 X76.502 Y103.876 E0.01899 ; brim
G1 X75.758 Y103.582 E0.01899 ; brim
G1 X75.069 Y103.174 E0.01899 ; brim
G1 X74.936 Y103.077 E0.00391 ; brim
G1 X74.335 Y102.548 E0.01899 ; brim
G1 X73.826 Y101.931 E0.01899 ; brim
G1 X73.493 Y101.389 E0.01508 ; brim
G1 X73.175 Y100.654 E0.01899 ; brim
G1 X73.124 Y100.498 E0.00391 ; brim
G1 X72.950 Y99.716 E0.01899 ; brim
G1 X72.900 Y99.041 E0.01606 ; brim
G1 X72.900 Y85.821 E0.31362 ; brim
G1 X72.612 Y85.533 E0.00966 ; brim
G1 X73.149 Y84.869 F7800.000 ; move to first brim point
G1 X54.379 Y84.869 E0.44527 F1260.000 ; brim
G1 X53.500 Y83.991 E0.02948 ; brim
G1 X53.500 Y78.844 E0.12211 ; brim
G1 X54.379 Y77.965 E0.02948 ; brim
G1 X125.621 Y77.965 E1.69006 ; brim
G1 X126.500 Y78.843 E0.02948 ; brim
G1 X126.500 Y83.991 E0.12211 ; brim
G1 X125.621 Y84.869 E0.02948 ; brim
G1 X106.851 Y84.869 E0.44527 ; brim
G1 X106.500 Y85.221 E0.01179 ; brim
G1 X106.500 Y99.029 E0.32758 ; brim
G1 X106.435 Y99.762 E0.01745 ; brim
G1 X106.262 Y100.447 E0.01675 ; brim
G1 X105.983 Y101.095 E0.01675 ; brim
G1 X105.606 Y101.693 E0.01675 ; brim
G1 X105.140 Y102.224 E0.01675 ; brim
G1 X104.597 Y102.675 E0.01675 ; brim
G1 X103.990 Y103.036 E0.01675 ; brim
G1 X103.335 Y103.298 E0.01675 ; brim
G1 X102.646 Y103.454 E0.01675 ; brim
G1 X102.029 Y103.500 E0.01466 ; brim
G1 X77.971 Y103.500 E0.57074 ; brim
G1 X77.354 Y103.454 E0.01466 ; brim
G1 X76.665 Y103.298 E0.01675 ; brim
G1 X76.010 Y103.036 E0.01675 ; brim
G1 X75.403 Y102.675 E0.01675 ; brim
G1 X74.776 Y102.140 E0.01954 ; brim
G1 X74.325 Y101.597 E0.01675 ; brim
G1 X74.017 Y101.095 E0.01396 ; brim
G1 X73.738 Y100.447 E0.01675 ; brim
G1 X73.546 Y99.646 E0.01954 ; brim
G1 X73.500 Y99.029 E0.01466 ; brim
G1 X73.500 Y85.221 E0.32758 ; brim
G1 X73.212 Y84.933 E0.00966 ; brim
G1 X73.749 Y84.269 F7800.000 ; move to first brim point
G1 X54.627 Y84.269 E0.45361 F1260.000 ; brim
G1 X54.100 Y83.742 E0.01769 ; brim
G1 X54.100 Y79.092 E0.11031 ; brim
G1 X54.627 Y78.565 E0.01769 ; brim
G1 X58.741 Y78.565 E0.09759 ; brim
G1 X125.373 Y78.565 E1.58068 ; brim
G1 X125.900 Y79.092 E0.01769 ; brim
G1 X125.900 Y83.742 E0.11031 ; brim
G1 X125.373 Y84.269 E0.01769 ; brim
G1 X106.251 Y84.269 E0.45361 ; brim
G1 X105.900 Y84.621 E0.01179 ; brim
G1 X105.900 Y99.018 E0.34153 ; brim
G1 X105.846 Y99.645 E0.01494 ; brim
G1 X105.698 Y100.239 E0.01452 ; brim
G1 X105.459 Y100.802 E0.01452 ; brim
G1 X105.134 Y101.321 E0.01452 ; brim
G1 X104.733 Y101.783 E0.01452 ; brim
G1 X104.264 Y102.176 E0.01452 ; brim
G1 X103.739 Y102.491 E0.01452 ; brim
G1 X103.172 Y102.720 E0.01452 ; brim
G1 X102.575 Y102.858 E0.01452 ; brim
G1 X102.018 Y102.900 E0.01326 ; brim
G1 X77.982 Y102.900 E0.57018 ; brim
G1 X77.425 Y102.858 E0.01326 ; brim
G1 X76.828 Y102.720 E0.01452 ; brim
G1 X76.261 Y102.491 E0.01452 ; brim
G1 X75.736 Y102.176 E0.01452 ; brim
G1 X75.217 Y101.733 E0.01619 ; brim
G1 X74.824 Y101.264 E0.01452 ; brim
G1 X74.541 Y100.802 E0.01285 ; brim
G1 X74.302 Y100.239 E0.01452 ; brim
G1 X74.142 Y99.575 E0.01619 ; brim
G1 X74.100 Y99.018 E0.01326 ; brim
G1 X74.100 Y84.621 E0.34153 ; brim
G1 X73.812 Y84.333 E0.00966 ; brim
G1 X74.349 Y83.669 F7800.000 ; move to first brim point
G1 X54.876 Y83.669 E0.46195 F1260.000 ; brim
G1 X54.700 Y83.494 E0.00590 ; brim
G1 X54.700 Y79.341 E0.09852 ; brim
G1 X54.876 Y79.165 E0.00590 ; brim
G1 X58.741 Y79.165 E0.09170 ; brim
G1 X125.124 Y79.165 E1.57478 ; brim
G1 X125.300 Y79.341 E0.00590 ; brim
G1 X125.300 Y83.494 E0.09852 ; brim
G1 X125.124 Y83.669 E0.00590 ; brim
G1 X105.651 Y83.669 E0.46195 ; brim
G1 X105.300 Y84.021 E0.01179 ; brim
G1 X105.300 Y99.006 E0.35548 ; brim
G1 X105.261 Y99.505 E0.01187 ; brim
G1 X105.142 Y100.009 E0.01228 ; brim
G1 X104.946 Y100.488 E0.01228 ; brim
G1 X104.677 Y100.930 E0.01228 ; brim
G1 X104.342 Y101.325 E0.01228 ; brim
G1 X103.949 Y101.663 E0.01228 ; brim
G1 X103.509 Y101.935 E0.01228 ; brim
G1 X103.009 Y102.142 E0.01284 ; brim
G1 X102.505 Y102.261 E0.01228 ; brim
G1 X102.006 Y102.300 E0.01187 ; brim
G1 X77.994 Y102.300 E0.56962 ; brim
G1 X77.495 Y102.261 E0.01187 ; brim
G1 X76.991 Y102.142 E0.01228 ; brim
G1 X76.512 Y101.946 E0.01228 ; brim
G1 X76.070 Y101.677 E0.01228 ; brim
G1 X75.658 Y101.325 E0.01284 ; brim
G1 X75.323 Y100.930 E0.01228 ; brim
G1 X75.054 Y100.488 E0.01228 ; brim
G1 X74.865 Y100.031 E0.01173 ; brim
G1 X74.739 Y99.505 E0.01284 ; brim
G1 X74.700 Y99.006 E0.01187 ; brim
G1 X74.700 Y84.021 E0.35548 ; brim
G1 X74.412 Y83.733 E0.00966 ; brim
G1 X75.300 Y83.069 F7800.000 ; move to first perimeter point
G1 X55.300 Y83.069 E0.47445 F1008.000 ; perimeter
G1 X55.300 Y79.765 E0.07839 ; perimeter
G1 X124.700 Y79.765 E1.64635 ; perimeter
G1 X124.700 Y83.069 E0.07839 ; perimeter
G1 X104.700 Y83.069 E0.47445 ; perimeter
G1 X104.700 Y98.988 E0.37764 ; perimeter
G1 X104.666 Y99.422 E0.01033 ; perimeter
G1 X104.567 Y99.834 E0.01005 ; perimeter
G1 X104.405 Y100.225 E0.01005 ; perimeter
G1 X104.184 Y100.586 E0.01005 ; perimeter
G1 X103.909 Y100.909 E0.01005 ; perimeter
G1 X103.586 Y101.184 E0.01005 ; perimeter
G1 X103.225 Y101.405 E0.01005 ; perimeter
G1 X102.834 Y101.567 E0.01005 ; perimeter
G1 X102.422 Y101.666 E0.01005 ; perimeter
G1 X101.988 Y101.700 E0.01033 ; perimeter
G1 X78.012 Y101.700 E0.56878 ; perimeter
G1 X77.578 Y101.666 E0.01033 ; perimeter
G1 X77.166 Y101.567 E0.01005 ; perimeter
G1 X76.775 Y101.405 E0.01005 ; perimeter
G1 X76.414 Y101.184 E0.01005 ; perimeter
G1 X76.091 Y100.909 E0.01005 ; perimeter
G1 X75.816 Y100.586 E0.01005 ; perimeter
G1 X75.595 Y100.225 E0.01005 ; perimeter
G1 X75.433 Y99.834 E0.01005 ; perimeter
G1 X75.334 Y99.422 E0.01005 ; perimeter
G1 X75.300 Y98.988 E0.01033 ; perimeter
G1 X75.300 Y83.159 E0.37550 ; perimeter
G1 X75.900 Y82.469 F7800.000 ; move to first perimeter point
G1 X55.900 Y82.469 E0.47445 F1260.000 ; perimeter
G1 X55.900 Y80.365 E0.04993 ; perimeter
G1 X124.100 Y80.365 E1.61788 ; perimeter
G1 X124.100 Y82.469 E0.04993 ; perimeter
G1 X104.100 Y82.469 E0.47445 ; perimeter
G1 X104.100 Y98.965 E0.39131 ; perimeter
G1 X104.013 Y100.071 E0.02632 ; perimeter
G1 X103.482 Y100.050 E0.01261 ; perimeter
G1 X103.482 Y98.789 E0.02991 ; perimeter
G1 X103.410 Y98.372 E0.01002 ; perimeter
G1 X103.270 Y97.974 E0.01002 ; perimeter
G1 X103.064 Y97.605 E0.01002 ; perimeter
G1 X102.798 Y97.277 E0.01002 ; perimeter
G1 X102.481 Y96.997 E0.01002 ; perimeter
G1 X102.121 Y96.776 E0.01002 ; perimeter
G1 X101.729 Y96.618 E0.01002 ; perimeter
G1 X101.326 Y96.531 E0.00980 ; perimeter
G1 X100.866 Y96.515 E0.01092 ; perimeter
G1 X100.475 Y96.565 E0.00934 ; perimeter
G1 X100.071 Y96.689 E0.01002 ; perimeter
G1 X99.694 Y96.879 E0.01002 ; perimeter
G1 X99.212 Y97.236 E0.01423 ; perimeter
G1 X99.212 Y91.764 E0.12980 ; perimeter
G1 X99.694 Y92.121 E0.01423 ; perimeter
G1 X100.071 Y92.311 E0.01002 ; perimeter
G1 X100.475 Y92.435 E0.01002 ; perimeter
G1 X100.894 Y92.489 E0.01002 ; perimeter
G1 X101.316 Y92.471 E0.01002 ; perimeter
G1 X101.729 Y92.382 E0.01002 ; perimeter
G1 X102.121 Y92.224 E0.01002 ; perimeter
G1 X102.481 Y92.003 E0.01002 ; perimeter
G1 X102.798 Y91.723 E0.01002 ; perimeter
G1 X103.064 Y91.395 E0.01002 ; perimeter
G1 X103.270 Y91.026 E0.01002 ; perimeter
G1 X103.410 Y90.628 E0.01002 ; perimeter
G1 X103.482 Y90.211 E0.01002 ; perimeter
G1 X103.482 Y89.789 E0.01002 ; perimeter
G1 X103.410 Y89.372 E0.01002 ; perimeter
G1 X103.270 Y88.974 E0.01002 ; perimeter
G1 X103.064 Y88.605 E0.01002 ; perimeter
G1 X102.798 Y88.277 E0.01002 ; perimeter
G1 X102.481 Y87.997 E0.01002 ; perimeter
G1 X102.121 Y87.776 E0.01002 ; perimeter
G1 X101.729 Y87.618 E0.01002 ; perimeter
G1 X101.326 Y87.531 E0.00979 ; perimeter
G1 X101.009 Y87.512 E0.00753 ; perimeter
G1 X100.475 Y87.565 E0.01272 ; perimeter
G1 X100.071 Y87.689 E0.01002 ; perimeter
G1 X99.694 Y87.879 E0.01002 ; perimeter
G1 X99.354 Y88.130 E0.01002 ; perimeter
G1 X99.062 Y88.435 E0.01002 ; perimeter
G1 X98.826 Y88.785 E0.01002 ; perimeter
G1 X98.683 Y89.100 E0.00819 ; perimeter
G1 X81.340 Y89.100 E0.41143 ; perimeter
G1 X81.064 Y88.605 E0.01344 ; perimeter
G1 X80.798 Y88.277 E0.01002 ; perimeter
G1 X80.481 Y87.997 E0.01002 ; perimeter
G1 X80.121 Y87.776 E0.01002 ; perimeter
G1 X79.729 Y87.618 E0.01002 ; perimeter
G1 X79.326 Y87.531 E0.00980 ; perimeter
G1 X79.008 Y87.512 E0.00754 ; perimeter
G1 X78.475 Y87.565 E0.01271 ; perimeter
G1 X78.071 Y87.689 E0.01002 ; perimeter
G1 X77.694 Y87.879 E0.01002 ; perimeter
G1 X77.354 Y88.130 E0.01002 ; perimeter
G1 X77.062 Y88.435 E0.01002 ; perimeter
G1 X76.826 Y88.785 E0.01002 ; perimeter
G1 X76.652 Y89.170 E0.01002 ; perimeter
G1 X76.545 Y89.579 E0.01002 ; perimeter
G1 X76.509 Y90.000 E0.01002 ; perimeter
G1 X76.545 Y90.421 E0.01002 ; perimeter
G1 X76.652 Y90.830 E0.01002 ; perimeter
G1 X76.826 Y91.215 E0.01002 ; perimeter
G1 X77.062 Y91.565 E0.01002 ; perimeter
G1 X77.354 Y91.870 E0.01002 ; perimeter
G1 X77.694 Y92.121 E0.01002 ; perimeter
G1 X78.071 Y92.311 E0.01002 ; perimeter
G1 X78.475 Y92.435 E0.01002 ; perimeter
G1 X78.894 Y92.489 E0.01002 ; perimeter
G1 X79.316 Y92.471 E0.01002 ; perimeter
G1 X79.729 Y92.382 E0.01002 ; perimeter
G1 X80.121 Y92.224 E0.01002 ; perimeter
G1 X80.788 Y91.813 E0.01858 ; perimeter
G1 X80.788 Y97.187 E0.12747 ; perimeter
G1 X80.121 Y96.776 E0.01858 ; perimeter
G1 X79.729 Y96.618 E0.01002 ; perimeter
G1 X79.326 Y96.531 E0.00979 ; perimeter
G1 X78.866 Y96.515 E0.01092 ; perimeter
G1 X78.475 Y96.565 E0.00934 ; perimeter
G1 X78.071 Y96.689 E0.01002 ; perimeter
G1 X77.694 Y96.879 E0.01002 ; perimeter
G1 X77.354 Y97.130 E0.01002 ; perimeter
G1 X77.062 Y97.435 E0.01002 ; perimeter
G1 X76.826 Y97.785 E0.01002 ; perimeter
G1 X76.652 Y98.170 E0.01002 ; perimeter
G1 X76.545 Y98.579 E0.01002 ; perimeter
G1 X76.509 Y99.000 E0.01002 ; perimeter
G1 X76.605 Y100.128 E0.02684 ; perimeter
G1 X76.139 Y100.203 E0.01121 ; perimeter
G1 X75.929 Y99.328 E0.02134 ; perimeter
G1 X75.900 Y98.965 E0.00865 ; perimeter
G1 X75.900 Y82.559 E0.38917 ; perimeter
G1 X77.378 Y92.634 F7800.000 ; move to first perimeter point
G1 X77.847 Y92.870 E0.01244 F720.000 ; perimeter
G1 X78.348 Y93.023 E0.01244 ; perimeter
G1 X78.869 Y93.090 E0.01244 ; perimeter
G1 X79.393 Y93.068 E0.01245 ; perimeter
G1 X80.188 Y92.896 E0.01930 ; perimeter
G1 X80.188 Y96.104 E0.07608 ; perimeter
G1 X79.409 Y95.935 E0.01892 ; perimeter
G1 X78.821 Y95.916 E0.01394 ; perimeter
